X:1
T:Title
%%score [ ( 1 2 ) ( 3 4 ) ]
L:1/8
Q:1/4=120
M:4/4
K:F
V:1 treble nm="Midi_74" snm=" "
V:2 treble 
V:3 bass nm="Midi_74"
V:4 bass 
V:1
"^Phillips Brooks" A2 | A2 A2 ^G2 A2 |"^20. O little town of Bethlehem" (c2 B2) D2 G2 | %3
w: O|lit- tle town of|Beth- le- hem, how|
w: |||
w: How|si- lent- ly, how|si- lent- ly, the|
 F2 EF G2"^Lewis H. Redner" C2 | A6 ||[M:4/4] A2 | A2 A2 d2 c2 | c2 B2 D2 G2 | F2 EF A2 G2 | F6 || %10
w: still we * see thee|lie!|A-|bove thy deep and|dream- less sleep the|si- lent * stars go|by.|
w: |||||||
w: won- drous * gift is|giv'n.|So|God im- parts to|hu- man hearts the|bless- ings * of his|heav'n.|
 A2 | A2 A2 G2 F2 | E4 E2 E2 | D2 E2 F2 G2 | A6 || A2 | A2 A2 ^G2 A2 | c2 B2 D2 d2 | c2 F2 A3 G | %19
w: Yet|in thy dark streets|shin- eth the|e- ver- last- ing|Light;|the|hopes and fears of|all the years are|met in thee to-|
w: |||||||||
w: No|ear may hear his|com- ing; but|in this world of|sin,|where|meek souls will re-|ceive him still, the|dear Christ en- ters|
 F6 |] %20
w: night.|
w: |
w: in.|
V:2
 C2 | C2 C2 =B,2 C2 | (_E2 D2) B,2 D2 | C2 C2 C2 C2 | C6 ||[M:4/4] C2 | C2 F2 ^F2 F2 | %7
w: |||||||
w: For|Christ is born of|Ma * ry; and,|gath- ered all a-|bove,|while|mor- tals sleep, the|
w: |||||||
w: O|ho- ly Child of|Beth- le- hem, de-|scend to us, we|pray;|cast|out our sin, and|
 G2 D2 B,2 D2 | C2 C2 E2 E2 | F6 || F2 | F2 F2 E2 D2 | ^C4 C2 C2 | D2 E2 F2 D2 | E6 || F2 | %16
w: |||||||||
w: an- gels keep their|watch of wond'- ring|love.|O|morn- ing stars, to-|geth- er pro-|claim the ho- ly|birth,|and|
w: |||||||||
w: en- ter in, be|born in us to-|day.|We|hear the Christ- mas|an- gels the|great glad ti- dings|tell:|o|
 C2 C2 =B,2 C2 | D2 D2 B,2 DE | F2 =B,2 C3 _B, | A,6 |] %20
w: ||||
w: prai- ses sing to|God the King, and *|peace to men on|earth.|
w: ||||
w: come to us, a-|bide with us, our *|Lord Em- man- u-|el!|
V:3
 F,2 | F,2 F,2 F,2 F,2 | (^F,2 G,2) G,2 B,2 | A,2 G,A, B,2 B,2 | A,6 ||[M:4/4] F,2 | %6
 F,2 A,2 A,2 D2 | D2 D2 D2 B,2 | A,2 ^G,A, C2 B,2 | A,6 || C2 | C2 A,2 B,2 =B,2 | ^C4 C2 A,2 | %13
 D,2 E,2 F,2 D2 | ^C6 ||"^This edition  Andrew Sims 2014" !courtesy!=C2 | C2 A,2 F,2 F,2 | %17
 ^F,2 G,2 G,2 B,2 | A,2 G,F, F,3 E, | F,6 |] %20
V:4
 F,2 | F,2 F,2 F,2 F,2 | (B,,2 B,,2) B,,2 B,,2 | C,2 C,2 C,2 C,2 | [F,,F,]6 ||[M:4/4] F,2 | %6
 F,2 _E,2 D,2 D,2 | G,2 G,2 G,,2 B,,2 | C,3 C, C,2 C,2 | F,6 || F,2 | F,2 F,2 G,2 ^G,2 | %12
 A,4 A,2 A,,2 | D,2 E,2 F,2 B,2 | A,6 || F,2 | F,2 F,2 F,2 F,2 | B,,2 B,,2 B,,2 B,,2 | %18
 C,2 D,2 C,3 C, | F,,6 |] %20

